X:1
T:Title
%%score { ( 1 3 ) | ( 2 4 ) }
L:1/8
M:4/4
K:Bb
V:1 treble nm="Grand Piano"
V:3 treble 
V:2 bass 
V:4 bass 
V:1
 z4 z2[Q:1/4=108] [DF]2 | [Fd]3 [Ec] [DB]2 [FB]2 | BAGF F2 [DF]2 | [EG]2 [FA]2 [FB]2 [Fd]2 | %4
 [Fd]4 [Fc]2 [Gc]2 | [^Fd]3 [FA] [GB]2 [GB]2 | [Gc]3 [=EG] [FA]2 [FA]2 | [FB]2 [Fd]2 [CF]2 [DFB]2 | %8
[M:9/8] F2- [=EF]- [EF] F2- F F2 |[M:4/4] [FA]3 [FB] [Fc]2 F2 | d3 e d2 d2 | [Ge]2 c2 d2 B2 | %12
[M:3/4] B4 A2 |[M:1/4] F2 |[M:4/4] [Fd]3 [Ec] [DB]2 [FB]2 | BAGF F2 [DF]2 | [EG]2 [FB]2 e2 d2 | %17
[M:7/8] c- c3 z z2 |[M:1/4] F2 |[M:4/4] c3 =B c2 F2 | [DFd]3 [D^Fc] B2 e2 | d2 f2 B2 [Ge]2 | %22
[M:3/4] d4 z2 |[M:1/4] F2 |[M:4/4] [Fd]3 [Ec] [DB]2 [FB]2 | .B2 z2 z4 | [EG]2 [FB]2 e2 d2 | %27
[M:15/8] .c6 z3 z6 |] %28
V:2
 z4 z2 [B,,B,]2 | [B,,B,]3 [B,,F,] [B,,F,]2 [D,F,]2 | [C,F,]2 [E,A,C]2 [D,B,]2 [B,,B,]2 | %3
 [E,B,]2 [E,C]2 [D,B,]2 [B,,B,]2 | [F,B,]4 [F,A,]2 [E,A,]2 | [D,A,]3 [D,D] [G,D]2 [F,D]2 | %6
 [=E,C]3 [C,C] [F,C]2 [_E,C]2 | [D,B,]2 [B,,B,]2 A,,2 G,,2 | %8
[M:9/8] z2 B,- B, [F,A,C]2- [F,A,C] [F,A,C]2 |[M:4/4] [E,C]3 [D,B,] [C,A,]2 [F,A,]2 | %10
 [B,F]3 [B,G] [B,F]2 [G,=B,G]2 | [C,C]2 [F,A,F]2[K:treble] [B,F]2 [G,C=E]2 | %12
[M:3/4][K:bass] [F,DF]4 [F,CF]2 |[M:1/4] [F,A,]2 |[M:4/4] [B,,B,]3 [B,,F,] [B,,F,]2 [D,F,]2 | %15
 [C,F,]2 [E,A,C]2 [D,B,]2 [B,,B,]2 | [E,B,]2 [D,B,]2 [G,B,E]2 [F,B,F]2 |[M:7/8] B,2 z z z z2 | %18
[M:1/4] F,2 |[M:4/4] [F,A,E]3 [F,_A,D] [F,=A,E]2 [F,E]2 | B,,3 D,[K:treble] [G,DG]2 [A,CF]2 | %21
 [B,F]2 [A,CF]2 [G,DG]2[K:bass] [C,C]2 |[M:3/4] C2 z2 z2 |[M:1/4] [F,A,]2 | %24
[M:4/4] [B,,B,]3 [B,,F,] [B,,F,]2 [D,F,]2 | [C,F,]2 [E,A,C]2 [D,B,]2 [B,,B,]2 | %26
 [E,B,]2 [D,B,]2 [G,B,E]2 [F,B,F]2 |[M:15/8] .B,3 z3 z3 z6 |] %28
V:3
 x8 | x8 | E2 z2 z4 | x8 | x8 | x8 | x8 | x8 |[M:9/8] .C3 z3 z3 |[M:4/4] x8 | x8 | x8 |[M:3/4] x6 | %13
[M:1/4] x2 |[M:4/4] x8 | E2 z2 z4 | x8 |[M:7/8] z2 A,2 [DB]3 |[M:1/4] x2 |[M:4/4] x8 | x8 | x8 | %22
[M:3/4] z2 B,2 c2 |[M:1/4] x2 |[M:4/4] x8 | E-[EA]GF F2 [DF]2 | x8 | %27
[M:15/8] z2 A,-A, [DB]2- [DB] z2 z6 |] %28
V:4
 x8 | x8 | x8 | x8 | x8 | x8 | x8 | x8 |[M:9/8] .C,6 z3 |[M:4/4] x8 | x8 | x4[K:treble] x4 | %12
[M:3/4][K:bass] x6 |[M:1/4] x2 |[M:4/4] x8 | x8 | x8 |[M:7/8] [F,E]- [F,E]3 [B,,F,]3 |[M:1/4] x2 | %19
[M:4/4] x8 | x4[K:treble] x4 | x6[K:bass] x2 |[M:3/4] [F,F]4 [F,A,F]2 |[M:1/4] x2 |[M:4/4] x8 | %25
 x8 | x8 |[M:15/8] [F,E]3- [F,E] [B,,F,]2- [B,,F,] z2 z6 |] %28

